X:1710
T:Bol d'air (R. Robert)
M:3/4
L:1/8
K:F
c dc|f2 fc dc|g2 gc dc|ga gd  ed|a2 fc dc|\
f2 fc dc|g2 gc dc|gf ec de|f2 f:|
K:C
|:c dc|ef ed cB|cA E2 E2|dB GB dB|ec G4|\
ef ed cB|cA E2 E2|dB GB dB|c2 c:|


